X: 144
T: Ayva Çiçek Açmış
C: (Anonim)
O: Turkey
F: http://compmusic.upf.edu/node/140
N: ussak--turku--nimsofyan--ayva_cicek--
N: makam= ussak
N: form= turku
N: usul= nimsofyan = 2/4
M: 2/4
L: 1/16
K: C _2/4B   
Q: 1/4=96
%%MIDI tuningsystem comma53
GA2f ede2  | Bc2d cBA2  | GA2f ede2  | Bc2d cBA2  | 
w:  ARANAĞME  |   |   |   | 
^3/4F2G2 A2B2  | cBcd cBBA  | A2{c}BA G2BA  | \
w:   |   |   | 
A2{B}AG ^3/4FED2  | 
w:   | 
^3/4F2G2 A2B2  | cBcd cBBA  | A2{c}BA G2BA  | \
w:   |   |   | 
A2ed cde2  | 
w:   | 
A3A e2e2  | e2e6  | f3f f2fe  | fede d2c2  | \
w:  Ay va  çi çek_  |  aç mış   |  yaz  mı  ge le  |  cek    | 
e2ed d2dB  | 
w:  Gö nül  *  bu  sev  | 
c2c2 B2A2  | A2BA G2BA  | A2AG ^3/4FED2  | \
w:  dâ dan   |  vaz  mı  *  ge çe  |  cek   SAZ  | 
G2G2 A2B2  | cBcd cBBA  | 
w:  Gö nül  bu  sev  |  dâ *  dan   | 
A2{c}BA G2BA  | A2ed cde2  | A2A2 e2e2  | \
w:  vaz  *  mı  *  ge çe  |  cek   SAZ  |  Ba na  et tik  | 
e2e6  | f3f f2fe  | 
w:  le rin   |  az  mı  ge le  | 
fede d2c2  | e2ed d2dB  | c2c2 B2A2  | A2BA G2BA  | 
w:  cek    |  Yan dım  *  Al lah   |  yan dım   |  yan dır *  ma  be  | 
A2AG ^3/4FED2  | G2G2 A2B2  | cBcd cBBA  | \
w:  ni   SAZ  |  De rin  uy ku  |  lar *  dan   | 
A2{c}BA G2BA  | 
w:  kal *  dır *  ma  be  | 
A8  | G2G2 A2B2  | cBcd cBBA  | A2{c}BA G2BA  | A8  | \
w:  ni    |  Se vi yo rum   |  di *  ye *  rek   |  kan *  dır *  ma  be  |  ni    | 
GA2f ede2  | 
w:  ARANAĞME  | 
Bc2d cBA2  | GA2f ede2  | Bc2d cBA2  | ^3/4F2G2 A2B2  | 
w:   |   |   |   | 
cBcd cBBA  | A2{c}BA G2BA  | A2{B}AG ^3/4FED2  | \
w:   |   |   | 
^3/4F2G2 A2B2  | 
w:   | 
cBcd cBBA  | A2{c}BA G2BA  | A2ed cde2  | \
w:   |   |   | 
A3A e2e2  | 
w:  Ay va  çi çek_  | 
e2e6  | f3f f2fe  | fede d2c2  | e2ed d2dB  | \
w:  aç mış   |  yaz  mı  ge le  |  cek    |  Gö nül  *  bu  sev  | 
c2c2 B2A2  | 
w:  dâ dan   | 
A2BA G2BA  | A2AG ^3/4FED2  | G2G2 A2B2  | \
w:  vaz  mı  *  ge çe  |  cek   SAZ  |  Gö nül  bu  sev  | 
cBcd cBBA  | 
w:  dâ *  dan   | 
A2{c}BA G2BA  | A2ed cde2  | A2A2 e2e2  | \
w:  vaz  *  mı  *  ge çe  |  cek   SAZ  |  Ba na  et tik  | 
e2e6  | f3f f2fe  | 
w:  le rin   |  az  mı  ge le  | 
fede d2c2  | e2ed d2dB  | c2c2 B2A2  | A2BA G2BA  | 
w:  cek    |  Yan dım  *  Al lah   |  yan dım   |  yan dır *  ma  be  | 
A2AG ^3/4FED2  | G2G2 A2B2  | cBcd cBBA  | \
w:  ni   SAZ  |  De rin  uy ku  |  lar *  dan   | 
A2{c}BA G2BA  | 
w:  kal *  dır *  ma  be  | 
A8  | G2G2 A2B2  | cBcd cBBA  | A2{c}BA G2BA  | A8  | |


